assets/icons/folder/search-filled.svg

<?xml version="1.0" encoding="UTF-8" standalone="no"?>
<svg
   viewBox="0 0 24 24"
   height="24"
   width="24"
   version="1.1"
   id="svg10"
   sodipodi:docname="search-filled.svg"
   inkscape:version="1.2 (1:1.2.1+202207142221+cd75a1ee6d)"
   xmlns:inkscape="http://www.inkscape.org/namespaces/inkscape"
   xmlns:sodipodi="http://sodipodi.sourceforge.net/DTD/sodipodi-0.dtd"
   xmlns="http://www.w3.org/2000/svg"
   xmlns:svg="http://www.w3.org/2000/svg">
  <defs
     id="defs14" />
  <sodipodi:namedview
     id="namedview12"
     pagecolor="#ffffff"
     bordercolor="#666666"
     borderopacity="1.0"
     inkscape:pageshadow="2"
     inkscape:pageopacity="0.0"
     inkscape:pagecheckerboard="0"
     showgrid="true"
     inkscape:snap-page="true"
     inkscape:zoom="19.79899"
     inkscape:cx="10.85914"
     inkscape:cy="12.172338"
     inkscape:window-width="1920"
     inkscape:window-height="1043"
     inkscape:window-x="0"
     inkscape:window-y="0"
     inkscape:window-maximized="1"
     inkscape:current-layer="svg10"
     inkscape:showpageshadow="2"
     inkscape:deskcolor="#d1d1d1">
    <inkscape:grid
       type="xygrid"
       id="grid824" />
  </sodipodi:namedview>
  <path
     id="path600"
     style="color:#000000;fill:#808080"
     d="M 5.5 3 C 4.2166692 3 3.3148419 3.1031268 2.7089844 3.7089844 C 2.1031268 4.3148419 2 5.2166692 2 6.5 L 2 17.5 C 2 18.783331 2.1031268 19.685157 2.7089844 20.291016 C 3.3148419 20.896873 4.2166692 21 5.5 21 L 13 21 C 9.698146 21 7 18.301855 7 15 C 7 11.698145 9.698146 9 13 9 C 16.301855 9 19 11.698145 19 15 A 1.0001 1.0001 0 0 0 19 15.001953 C 18.997109 16.067636 18.632597 17.068352 18.099609 17.978516 L 20.779297 20.658203 C 20.969094 20.563336 21.139551 20.44248 21.291016 20.291016 C 21.896873 19.685157 22 18.783331 22 17.5 L 22 9.5 C 22 8.2166693 21.896873 7.3148424 21.291016 6.7089844 C 20.685157 6.1031268 19.783331 6 18.5 6 L 13.707031 6 L 10.707031 3 L 5.5 3 z M 15.978516 20.099609 C 15.068352 20.632597 14.067636 20.9971 13.001953 21 L 16.878906 21 L 15.978516 20.099609 z " />
  <path
     id="path1758"
     style="fill:#808080;fill-rule:evenodd;stroke:none;stroke-width:2;stroke-linecap:round;stroke-linejoin:round;stroke-dasharray:2, 4"
     d="M 13 10 A 5 5 0 0 0 8 15 A 5 5 0 0 0 13 20 A 5 5 0 0 0 16.158203 18.865234 L 19.646484 22.353516 L 20.353516 21.646484 L 16.865234 18.158203 A 5 5 0 0 0 18 15 A 5 5 0 0 0 13 10 z M 13 11 A 4 4 0 0 1 17 15 A 4 4 0 0 1 13 19 A 4 4 0 0 1 9 15 A 4 4 0 0 1 13 11 z M 13 12 A 3 3 0 0 0 10 15 A 3 3 0 0 0 13 18 A 3 3 0 0 0 16 15 A 3 3 0 0 0 13 12 z " />
</svg>

<svg height="24" width="24" xmlns="http://www.w3.org/2000/svg"><path style="color:#000;fill:gray" d="M5.5 3c-1.283 0-2.185.103-2.791.709C2.103 4.315 2 5.217 2 6.5v11c0 1.283.103 2.185.709 2.791.606.606 1.508.709 2.791.709H13c-3.302 0-6-2.698-6-6s2.698-6 6-6 6 2.698 6 6a1 1 0 0 0 0 .002c-.003 1.066-.367 2.066-.9 2.977l2.68 2.68c.19-.096.36-.217.511-.368.606-.606.709-1.508.709-2.791v-8c0-1.283-.103-2.185-.709-2.791C20.685 6.103 19.783 6 18.5 6h-4.793l-3-3H5.5zm10.479 17.1c-.91.533-1.911.897-2.977.9h3.877l-.9-.9z"/><path style="fill:gray;stroke:none;stroke-width:2;stroke-linecap:round;stroke-linejoin:round;stroke-dasharray:2,4" d="M13 10a5 5 0 0 0-5 5 5 5 0 0 0 5 5 5 5 0 0 0 3.158-1.135l3.488 3.489.708-.708-3.489-3.488A5 5 0 0 0 18 15a5 5 0 0 0-5-5zm0 1a4 4 0 0 1 4 4 4 4 0 0 1-4 4 4 4 0 0 1-4-4 4 4 0 0 1 4-4zm0 1a3 3 0 0 0-3 3 3 3 0 0 0 3 3 3 3 0 0 0 3-3 3 3 0 0 0-3-3z"/></svg>
